docs/local/img/sprites/logo.svg

<svg width="40" height="40" viewBox="0 0 40 40" xmlns="http://www.w3.org/2000/svg">
<path d="M18.6889 0.489247C17.8429 0.54301 16.9486 0.66129 15.9848 0.854838C15.1655 1.0215 13.4466 1.53763 12.7612 1.83333C12.622 1.89247 12.4078 1.98387 12.29 2.03226C11.8509 2.21505 10.4479 2.94086 9.89105 3.27957C9.57512 3.47312 8.97003 3.88172 8.55236 4.18817C5.28061 6.5914 2.82813 9.95161 1.57512 13.7366C0.879 15.8495 0.595199 17.6505 0.589844 19.9409C0.589844 21.3602 0.616618 21.7258 0.836162 23.1183C1.2699 25.9032 2.37298 28.6505 4.00618 31.0215C5.29667 32.8925 7.09051 34.6989 8.94326 35.9785C11.4493 37.7151 14.373 38.8656 17.2431 39.2419C17.4948 39.2742 17.8803 39.328 18.0999 39.3602C18.6354 39.4355 21.2806 39.4355 21.8536 39.3548C22.0999 39.3226 22.4961 39.2742 22.7317 39.2419C24.2739 39.0376 26.1159 38.5215 27.6046 37.8871C27.9151 37.7527 29.3449 37.0376 29.5858 36.8979C31.9205 35.5108 33.8643 33.8172 35.3529 31.8548C35.5082 31.6452 35.6474 31.4677 35.6635 31.4516C35.7331 31.3817 36.3757 30.4032 36.6648 29.9194C37.1896 29.043 37.8375 27.6989 38.132 26.8871C38.7425 25.1936 39.037 23.9892 39.2619 22.2849C39.3475 21.5914 39.369 21.1344 39.369 19.9462C39.369 18.1505 39.2726 17.2527 38.8763 15.4301C38.5122 13.7473 37.5858 11.4677 36.6273 9.90323C36.4935 9.68817 36.3649 9.46774 36.3328 9.41935C36.0329 8.90323 35.0798 7.64516 34.5015 6.99462C32.6059 4.88172 30.4479 3.2957 27.8455 2.10753C27.4172 1.91398 26.0196 1.39247 25.5162 1.24193C23.3636 0.60215 21.0129 0.338709 18.6889 0.489247ZM21.5483 1.88172C22.8763 2.03226 23.5939 2.15591 24.5791 2.41398C25.95 2.77419 27.6153 3.44624 28.7291 4.08602C28.8469 4.15591 29.0129 4.24731 29.0932 4.29032C29.4091 4.45161 30.7317 5.36559 31.2404 5.77419C33.1682 7.32258 34.8495 9.37097 35.9794 11.5591C37.3716 14.2527 38.0196 16.9194 38.0196 19.9301C38.0196 21.1398 37.9392 22.0323 37.7036 23.414C37.618 23.9086 37.2967 25.1344 37.12 25.6452C36.1186 28.5376 34.6728 30.8548 32.6006 32.8763C32.2097 33.2581 31.8134 33.6344 31.7277 33.7097C30.9299 34.3925 29.7304 35.2312 28.8362 35.7419C28.1989 36.1022 26.9459 36.6989 26.5604 36.828C26.4854 36.8548 26.1856 36.9624 25.891 37.0699C25.4091 37.2419 25.136 37.328 24.2846 37.5538C23.8937 37.6559 22.9352 37.8333 22.1963 37.9409C21.2806 38.0699 18.6621 38.0699 17.7518 37.9355C14.6943 37.4946 12.2578 36.5699 9.82679 34.9247C8.08114 33.7419 6.37833 32.0538 5.18422 30.3226C3.51354 27.8979 2.46401 25.1882 2.08917 22.3387C1.50551 17.871 2.56039 13.4247 5.07713 9.73118C5.8375 8.61828 6.20162 8.17742 7.28328 7.0914C8.73442 5.63441 10.2552 4.54301 12.0758 3.65591C13.045 3.1828 14.2712 2.69892 14.9406 2.52688C15.9901 2.25806 16.306 2.18817 17.0022 2.07527C17.4466 2 18.0089 1.91935 18.2605 1.89247C18.9031 1.82258 20.9754 1.8172 21.5483 1.88172Z"/>
<path d="M11.5135 13.7956C10.6835 13.9354 9.90705 14.1827 9.30196 14.4838L8.86287 14.7042L8.84681 15.5483C8.83074 16.5107 8.83074 16.5053 9.22164 16.2418C10.812 15.172 13.0985 14.9784 13.9392 15.8494C14.0463 15.9569 14.1962 16.1935 14.2765 16.3655C14.405 16.6505 14.4211 16.7472 14.4211 17.2795C14.4211 17.8171 14.405 17.9193 14.2551 18.3064C13.907 19.1935 13.5429 19.6128 10.9512 22.1021C10.6032 22.4408 10.0356 22.9838 9.69286 23.3117C9.35551 23.6397 8.96461 24.016 8.82539 24.1505L8.56836 24.3924V25.2795C8.56836 25.9623 8.58442 26.1827 8.64333 26.2311C8.69152 26.2741 9.7357 26.2849 12.4559 26.2795L16.1989 26.2634L16.2149 25.5429C16.2257 24.9999 16.2096 24.8117 16.1614 24.7741C16.1239 24.7526 14.8441 24.7311 13.3234 24.7311C11.7705 24.7311 10.5496 24.7096 10.5496 24.6827C10.5496 24.6558 10.6888 24.5107 10.8602 24.3548C11.3421 23.9085 13.468 21.8548 14.0356 21.2849C15.0101 20.3064 15.6848 19.3279 15.9472 18.516C16.14 17.9246 16.2042 17.2741 16.1239 16.715C15.9793 15.6827 15.6259 15.0429 14.887 14.473C14.6996 14.3279 14.1534 14.0644 13.8696 13.9838C13.7357 13.9462 13.559 13.887 13.468 13.8601C13.302 13.8064 11.7491 13.7526 11.5135 13.7956Z"/>
<path d="M19.0364 14.7957C19.0204 14.8334 19.0043 15.3602 18.999 15.9678L18.9829 17.0699L18.0994 17.0968L17.2158 17.1237V17.7957V18.4678L18.0994 18.4947L18.9829 18.5215L19.0097 21.5323L19.0364 24.543L19.181 24.9086C19.3363 25.3226 19.5451 25.6452 19.7807 25.8441C20.3109 26.2957 21.3979 26.4893 22.5277 26.3441C23.2613 26.2473 23.1864 26.3387 23.1864 25.5323C23.1864 24.8925 23.1757 24.828 23.0953 24.8602C22.9186 24.9301 21.9226 25 21.6335 24.9678C21.1141 24.9086 20.8678 24.7527 20.6803 24.3549C20.6 24.1882 20.5893 23.8818 20.5893 21.3441V18.5215L21.7941 18.5054C22.6723 18.4947 23.0043 18.4731 23.0364 18.4248C23.09 18.3387 23.09 17.2527 23.0364 17.1667C23.0043 17.1183 22.6723 17.0968 21.7941 17.0861L20.5893 17.0699L20.5625 15.914L20.5358 14.7581L19.7968 14.742C19.2399 14.7312 19.0525 14.742 19.0364 14.7957Z"/>
<path d="M26.8013 16.9463C26.0731 17.0269 24.9968 17.3387 24.8897 17.4946C24.8415 17.5645 24.8308 18.7688 24.879 18.8871C24.9004 18.9516 24.9486 18.9463 25.1574 18.8387C25.7464 18.5323 26.8709 18.2796 27.5938 18.2796C28.8522 18.2903 29.5108 18.8549 29.634 20.0377C29.6661 20.3817 29.634 20.4086 29.0771 20.4516C26.5229 20.6667 25.4626 21.0108 24.638 21.9086C23.6099 23.0269 23.8616 25.0914 25.1253 25.957C25.7357 26.3764 26.6193 26.5538 27.4707 26.4301C28.3274 26.3065 28.9325 26 29.4733 25.4301C29.6661 25.2258 29.7464 25.1721 29.7786 25.2258C29.8053 25.2635 29.8268 25.5215 29.8268 25.7957V26.2957L30.5122 26.2796L31.1922 26.2635V22.8764V19.4893L31.0691 19.086C30.8227 18.3011 30.4907 17.8334 29.9017 17.4355C29.211 16.9731 28.0972 16.7957 26.8013 16.9463ZM29.6447 22.3549C29.5751 23.4731 29.2591 24.1613 28.6112 24.6398C28.0918 25.0215 27.1494 25.1721 26.5496 24.9678C25.9767 24.7742 25.65 24.2635 25.65 23.5699C25.65 22.7581 26.1695 22.2688 27.3368 21.9946C27.7223 21.9032 29.4894 21.7258 29.6072 21.7688C29.6661 21.785 29.6715 21.8979 29.6447 22.3549Z"/>
</svg>

<svg width="40" height="40" viewBox="0 0 40 40" xmlns="http://www.w3.org/2000/svg"><path d="M18.689.49c-.846.053-1.74.171-2.704.365-.82.167-2.538.683-3.224.978l-.471.2c-.44.182-1.842.908-2.399 1.247-.316.193-.921.602-1.339.908-3.271 2.403-5.724 5.764-6.977 9.549C.88 15.85.595 17.65.59 19.94c0 1.42.027 1.785.246 3.177.434 2.785 1.537 5.533 3.17 7.904 1.29 1.87 3.085 3.677 4.937 4.956 2.506 1.737 5.43 2.888 8.3 3.264.252.032.637.086.857.118.535.075 3.18.075 3.754-.005.246-.032.642-.08.878-.113 1.542-.204 3.384-.72 4.873-1.355.31-.134 1.74-.85 1.98-.99 2.335-1.386 4.28-3.08 5.768-5.042.155-.21.294-.387.31-.403.07-.07.713-1.049 1.002-1.533.525-.876 1.172-2.22 1.467-3.032.61-1.693.905-2.898 1.13-4.602.085-.694.107-1.15.107-2.339 0-1.796-.096-2.693-.493-4.516-.364-1.683-1.29-3.962-2.249-5.527-.134-.215-.262-.435-.294-.484-.3-.516-1.253-1.774-1.831-2.424a19.75 19.75 0 00-6.657-4.887 30.967 30.967 0 00-2.329-.866A19.7 19.7 0 0018.69.489zm2.86 1.392c1.327.15 2.045.274 3.03.532 1.371.36 3.036 1.032 4.15 1.672.118.07.284.161.364.204.316.162 1.639 1.076 2.147 1.484a18.42 18.42 0 014.74 5.785c1.392 2.694 2.04 5.36 2.04 8.371 0 1.21-.08 2.102-.316 3.484a21.11 21.11 0 01-.584 2.231c-1.001 2.893-2.447 5.21-4.52 7.231-.39.382-.787.758-.872.834a21.254 21.254 0 01-2.892 2.032c-.637.36-1.89.957-2.276 1.086-.075.027-.374.134-.669.242-.482.172-.755.258-1.606.484-.391.102-1.35.28-2.089.387-.915.129-3.534.129-4.444-.006-3.058-.44-5.494-1.365-7.925-3.01a18.46 18.46 0 01-4.643-4.602c-1.67-2.425-2.72-5.135-3.095-7.984-.583-4.468.471-8.914 2.988-12.608.76-1.113 1.125-1.554 2.206-2.64a17.21 17.21 0 014.793-3.435c.969-.473 2.195-.957 2.865-1.13 1.05-.268 1.365-.338 2.061-.45a26.36 26.36 0 011.259-.184c.642-.07 2.714-.075 3.287-.01z"/><path d="M11.514 13.796c-.83.14-1.607.387-2.212.688l-.44.22-.015.844c-.016.963-.016.957.375.694 1.59-1.07 3.877-1.264 4.717-.393.107.108.257.345.338.517.128.285.144.381.144.913 0 .538-.016.64-.166 1.027-.348.887-.712 1.307-3.304 3.796-.348.339-.915.882-1.258 1.21-.337.328-.728.704-.868.838l-.257.242v.887c0 .683.016.904.075.952.049.043 1.093.054 3.813.048l3.743-.016.016-.72c.01-.543-.005-.731-.054-.769-.037-.021-1.317-.043-2.838-.043-1.553 0-2.773-.021-2.773-.048s.139-.172.31-.328c.482-.447 2.608-2.5 3.176-3.07.974-.979 1.649-1.957 1.911-2.769a4.111 4.111 0 00.177-1.801c-.145-1.032-.498-1.672-1.237-2.242-.187-.145-.734-.409-1.017-.49-.134-.037-.311-.096-.402-.123-.166-.054-1.719-.107-1.954-.064zm7.522 1c-.016.037-.032.564-.037 1.172l-.016 1.102-.884.027-.883.027v1.344l.883.027.884.026.027 3.011.026 3.011.145.366c.155.414.364.736.6.935.53.452 1.617.645 2.747.5.733-.097.658-.005.658-.812 0-.64-.01-.704-.09-.672-.177.07-1.173.14-1.462.108-.52-.06-.766-.215-.954-.613-.08-.167-.09-.473-.09-3.01v-2.823l1.204-.017c.878-.01 1.21-.032 1.242-.08.054-.086.054-1.172 0-1.258-.032-.049-.364-.07-1.242-.08l-1.205-.017-.026-1.156-.027-1.156-.74-.016c-.556-.01-.744 0-.76.054zm7.765 2.15c-.728.08-1.804.393-1.911.549-.049.07-.06 1.274-.011 1.392.021.065.07.06.278-.048.59-.307 1.714-.56 2.437-.56 1.258.011 1.917.576 2.04 1.759.032.344 0 .37-.557.414-2.554.215-3.614.559-4.439 1.457-1.028 1.118-.776 3.182.487 4.048.61.42 1.494.597 2.346.473.856-.123 1.462-.43 2.002-1 .193-.204.273-.258.306-.204.026.038.048.296.048.57v.5l.685-.016.68-.017V19.49l-.123-.403c-.246-.785-.578-1.253-1.167-1.65-.691-.463-1.805-.64-3.1-.49zm2.844 5.409c-.07 1.118-.386 1.806-1.034 2.285-.52.381-1.462.532-2.061.328-.573-.194-.9-.704-.9-1.398 0-.812.52-1.301 1.687-1.575.385-.092 2.152-.27 2.27-.226.06.016.065.129.038.586z"/></svg>
